img/icons/logo-footer.svg

<svg width="150" height="58" viewBox="0 0 150 58" fill="none" xmlns="http://www.w3.org/2000/svg">
<path d="M67.9238 39.9852H69.1031V48.8613H67.9238V39.9852Z" fill="white"/>
<path d="M76.2442 48.0625C75.5932 48.7049 74.8028 49.0262 73.873 49.0262C72.9431 49.0262 72.1527 48.7049 71.5017 48.0625C70.8593 47.42 70.538 46.6296 70.538 45.6913C70.538 44.7529 70.8593 43.9625 71.5017 43.3201C72.1527 42.6776 72.9431 42.3564 73.873 42.3564C74.8028 42.3564 75.5932 42.6776 76.2442 43.3201C76.8951 43.9625 77.2205 44.7529 77.2205 45.6913C77.2205 46.6296 76.8951 47.42 76.2442 48.0625ZM73.873 47.9484C74.507 47.9484 75.0395 47.7328 75.4707 47.3017C75.9018 46.8705 76.1174 46.3337 76.1174 45.6913C76.1174 45.0488 75.9018 44.512 75.4707 44.0809C75.0395 43.6498 74.507 43.4342 73.873 43.4342C73.2474 43.4342 72.719 43.6498 72.2879 44.0809C71.8568 44.512 71.6412 45.0488 71.6412 45.6913C71.6412 46.3337 71.8568 46.8705 72.2879 47.3017C72.719 47.7328 73.2474 47.9484 73.873 47.9484Z" fill="white"/>
<path d="M84.3159 39.9852V41.101H81.6911V48.8613H80.5245V41.101H77.9124V39.9852H84.3159Z" fill="white"/>
<path d="M91.8739 39.9852C92.6939 39.9852 93.3744 40.2599 93.9154 40.8094C94.4649 41.3504 94.7396 42.0267 94.7396 42.8382C94.7396 43.6413 94.4649 44.3176 93.9154 44.8671C93.3744 45.4165 92.6939 45.6913 91.8739 45.6913H89.8323V48.8613H88.6531V39.9852H91.8739ZM91.8739 44.5881C92.3642 44.5881 92.7699 44.4232 93.0912 44.0936C93.4124 43.7554 93.573 43.337 93.573 42.8382C93.573 42.331 93.4124 41.9126 93.0912 41.5829C92.7699 41.2532 92.3642 41.0883 91.8739 41.0883H89.8323V44.5881H91.8739Z" fill="white"/>
<path d="M97.3117 47.7455H101.141V48.8613H96.1325V39.9852H97.3117V47.7455Z" fill="white"/>
<path d="M108.417 48.8613L107.694 46.8705H103.7L102.977 48.8613H101.722L105.032 39.9852H106.363L109.673 48.8613H108.417ZM104.106 45.7674H107.289L105.691 41.3927L104.106 45.7674Z" fill="white"/>
<path d="M115.757 39.9852V41.101H113.132V48.8613H111.965V41.101H109.353V39.9852H115.757Z" fill="white"/>
<path d="M122.034 41.101H118.103V43.9794H121.869V45.0953H118.103V48.8613H116.924V39.9852H122.034V41.101Z" fill="white"/>
<path d="M130.842 47.6821C129.954 48.5781 128.868 49.0262 127.583 49.0262C126.298 49.0262 125.212 48.5781 124.324 47.6821C123.437 46.786 122.993 45.6997 122.993 44.4232C122.993 43.1383 123.437 42.052 124.324 41.1644C125.212 40.2683 126.298 39.8203 127.583 39.8203C128.868 39.8203 129.954 40.2683 130.842 41.1644C131.738 42.052 132.186 43.1383 132.186 44.4232C132.186 45.6997 131.738 46.786 130.842 47.6821ZM125.136 46.8832C125.795 47.5426 126.611 47.8723 127.583 47.8723C128.555 47.8723 129.367 47.5426 130.018 46.8832C130.677 46.2154 131.007 45.3954 131.007 44.4232C131.007 43.4426 130.677 42.6227 130.018 41.9633C129.367 41.2954 128.555 40.9615 127.583 40.9615C126.611 40.9615 125.795 41.2954 125.136 41.9633C124.485 42.6227 124.159 43.4426 124.159 44.4232C124.159 45.3954 124.485 46.2154 125.136 46.8832Z" fill="white"/>
<path d="M138.866 48.8613L136.875 45.463H134.783V48.8613H133.604V39.9852H137.154C137.915 39.9852 138.566 40.2557 139.107 40.7967C139.648 41.3293 139.918 41.976 139.918 42.7368C139.918 43.3116 139.745 43.8357 139.398 44.3091C139.06 44.7825 138.621 45.1164 138.08 45.3109L140.172 48.8613H138.866ZM134.783 41.0883V44.3979H137.154C137.594 44.3979 137.966 44.2373 138.27 43.916C138.583 43.5863 138.739 43.1933 138.739 42.7368C138.739 42.2803 138.583 41.8914 138.27 41.5702C137.966 41.249 137.594 41.0883 137.154 41.0883H134.783Z" fill="white"/>
<path d="M149.661 39.9852V48.8613H148.494V41.9252L145.591 46.7564H145.438L142.535 41.9379V48.8613H141.355V39.9852H142.687L145.515 44.6769L148.33 39.9852H149.661Z" fill="white"/>
<path d="M79.6826 32.8027C76.3827 32.8027 73.6572 31.7062 71.506 29.5133C69.3549 27.3203 68.2793 24.6157 68.2793 21.3994C68.2793 18.1622 69.3549 15.4576 71.506 13.2855C73.6572 11.0926 76.3827 9.99609 79.6826 9.99609C81.6667 9.99609 83.4941 10.466 85.1649 11.4058C86.8566 12.3248 88.1724 13.5779 89.1122 15.1652L85.3842 17.3268C84.8412 16.3452 84.0685 15.5829 83.066 15.0399C82.0635 14.476 80.9357 14.194 79.6826 14.194C77.5523 14.194 75.8293 14.8623 74.5135 16.199C73.2186 17.5356 72.5712 19.2691 72.5712 21.3994C72.5712 23.5088 73.2186 25.2318 74.5135 26.5684C75.8293 27.9051 77.5523 28.5734 79.6826 28.5734C80.9357 28.5734 82.0635 28.3019 83.066 27.7589C84.0893 27.195 84.8621 26.4327 85.3842 25.472L89.1122 27.6336C88.1724 29.2209 86.8671 30.4844 85.1963 31.4242C83.5254 32.3432 81.6876 32.8027 79.6826 32.8027Z" fill="white"/>
<path d="M99.9445 32.8027C97.5009 32.8027 95.496 32.1134 93.9296 30.735C92.3632 29.3566 91.58 27.5083 91.58 25.19V10.4347H95.8719V24.8454C95.8719 25.9941 96.1956 26.9026 96.8431 27.5709C97.5114 28.2393 98.5452 28.5734 99.9445 28.5734C101.344 28.5734 102.367 28.2393 103.015 27.5709C103.683 26.9026 104.017 25.9941 104.017 24.8454V10.4347H108.34V25.19C108.34 27.5083 107.557 29.3566 105.991 30.735C104.424 32.1134 102.409 32.8027 99.9445 32.8027Z" fill="white"/>
<path d="M125.487 20.9921C127.408 22.099 128.369 23.7698 128.369 26.0045C128.369 27.8633 127.711 29.3879 126.395 30.5784C125.079 31.7688 123.461 32.3641 121.539 32.3641H112.235V10.4347H120.881C122.761 10.4347 124.338 11.0195 125.612 12.189C126.907 13.3377 127.554 14.8101 127.554 16.6062C127.554 18.4232 126.865 19.8852 125.487 20.9921ZM120.881 14.476H116.558V19.3004H120.881C121.55 19.3004 122.103 19.0707 122.542 18.6112C123.001 18.1517 123.231 17.5774 123.231 16.8882C123.231 16.199 123.012 15.6246 122.573 15.1652C122.135 14.7057 121.571 14.476 120.881 14.476ZM121.539 28.3228C122.27 28.3228 122.876 28.0826 123.356 27.6023C123.837 27.101 124.077 26.4745 124.077 25.7226C124.077 24.9916 123.837 24.386 123.356 23.9056C122.876 23.4043 122.27 23.1537 121.539 23.1537H116.558V28.3228H121.539Z" fill="white"/>
<path d="M145.3 32.3641L143.985 28.4168H135.244L133.928 32.3641H129.261L136.936 10.4347H142.293L150 32.3641H145.3ZM136.623 24.3755H142.638L139.63 15.4158L136.623 24.3755Z" fill="white"/>
<path d="M24.5653 0L49.1376 14.2603V42.1956L24.5653 57.1175L0 42.1538V14.1767L24.5653 0Z" fill="white"/>
<path d="M24.4943 16.9785L34.5189 22.7657V34.34L24.4943 40.1271L14.4697 34.34V22.7657L24.4943 16.9785Z" fill="#E6E6E6"/>
<path d="M24.6156 57.1172L0.000976562 42.1952L14.173 34.3751L24.6156 40.3345L35.0582 34.3751L49.2302 42.1992L24.6156 57.1172Z" fill="#EBEBEB"/>
<path d="M49.2289 14.2261V42.1973L35.0568 34.3759V23.1769L24.6143 17.2301V0.000530243L49.2289 14.2261Z" fill="#D9D9D9"/>
<path d="M-0.000356674 14.2261V42.1973L14.1717 34.3759V23.1769L24.6143 17.2301V0.000530243L-0.000356674 14.2261Z" fill="white"/>
<path d="M24.6154 29.1914L35.058 34.377L24.6154 40.3799L14.1729 34.377L24.6154 29.1914Z" fill="#A9ACB0"/>
<path d="M24.6143 29.1908V17.2305L35.0568 23.1688V34.3763L24.6143 29.1908Z" fill="#BABABA"/>
<path d="M24.6143 29.1908V17.2305L14.1717 23.1688V34.3763L24.6143 29.1908Z" fill="#E6E6E6"/>
</svg>

<svg width="150" height="58" fill="none" xmlns="http://www.w3.org/2000/svg"><path d="M67.924 39.984h1.18v8.876h-1.18v-8.876ZM76.244 48.062c-.65.642-1.441.963-2.371.963-.93 0-1.72-.321-2.371-.963-.643-.643-.964-1.433-.964-2.372 0-.938.321-1.728.964-2.37.65-.643 1.441-.965 2.371-.965.93 0 1.72.322 2.371.964.651.643.977 1.433.977 2.371 0 .939-.326 1.73-.977 2.372Zm-2.371-.115c.634 0 1.166-.215 1.598-.646.43-.431.646-.968.646-1.61 0-.643-.215-1.18-.646-1.611-.431-.431-.964-.647-1.598-.647-.626 0-1.154.216-1.585.647-.431.431-.647.968-.647 1.61 0 .643.216 1.18.647 1.61.431.432.96.647 1.585.647ZM84.316 39.984V41.1H81.69v7.76h-1.166V41.1h-2.613v-1.116h6.404ZM91.874 39.984c.82 0 1.5.275 2.041.824.55.541.825 1.218.825 2.03 0 .802-.275 1.479-.825 2.028-.54.55-1.221.824-2.041.824h-2.042v3.17h-1.179v-8.876h3.22Zm0 4.603c.49 0 .896-.165 1.217-.494.321-.339.482-.757.482-1.256 0-.507-.16-.925-.482-1.255-.321-.33-.727-.495-1.217-.495h-2.042v3.5h2.042ZM97.312 47.745h3.829v1.115h-5.009v-8.876h1.18v7.76ZM108.417 48.86l-.723-1.99H103.7l-.723 1.99h-1.255l3.31-8.876h1.331l3.31 8.876h-1.256Zm-4.311-3.094h3.183l-1.598-4.374-1.585 4.374ZM115.757 39.984V41.1h-2.625v7.76h-1.167V41.1h-2.612v-1.116h6.404ZM122.034 41.1h-3.931v2.878h3.766v1.116h-3.766v3.766h-1.179v-8.876h5.11V41.1ZM130.842 47.681c-.888.896-1.974 1.344-3.259 1.344s-2.371-.448-3.259-1.344c-.887-.896-1.331-1.982-1.331-3.259 0-1.285.444-2.37 1.331-3.258.888-.897 1.974-1.345 3.259-1.345s2.371.448 3.259 1.344c.896.888 1.344 1.974 1.344 3.26 0 1.276-.448 2.362-1.344 3.258Zm-5.706-.799c.659.66 1.475.99 2.447.99s1.784-.33 2.435-.99c.659-.668.989-1.487.989-2.46 0-.98-.33-1.8-.989-2.46-.651-.668-1.463-1.001-2.435-1.001s-1.788.334-2.447 1.001c-.651.66-.977 1.48-.977 2.46 0 .973.326 1.792.977 2.46ZM138.866 48.86l-1.991-3.398h-2.092v3.398h-1.179v-8.876h3.55c.761 0 1.412.27 1.953.812a2.62 2.62 0 0 1 .811 1.94c0 .575-.173 1.099-.52 1.572a2.713 2.713 0 0 1-1.318 1.002l2.092 3.55h-1.306Zm-4.083-7.773v3.31h2.371c.44 0 .812-.16 1.116-.482.313-.33.469-.723.469-1.18a1.61 1.61 0 0 0-.469-1.166 1.477 1.477 0 0 0-1.116-.482h-2.371ZM149.661 39.984v8.876h-1.167v-6.936l-2.903 4.831h-.153l-2.903-4.818v6.923h-1.18v-8.876h1.332l2.828 4.692 2.815-4.692h1.331ZM79.683 32.803c-3.3 0-6.025-1.097-8.177-3.29-2.15-2.193-3.226-4.898-3.226-8.114 0-3.237 1.075-5.942 3.227-8.114 2.15-2.193 4.876-3.29 8.176-3.29 1.984 0 3.812.47 5.482 1.41 1.692.92 3.008 2.173 3.948 3.76l-3.728 2.162a5.686 5.686 0 0 0-2.319-2.287c-1.002-.564-2.13-.846-3.383-.846-2.13 0-3.853.668-5.169 2.005-1.295 1.336-1.942 3.07-1.942 5.2 0 2.11.647 3.833 1.942 5.17 1.316 1.336 3.039 2.004 5.17 2.004 1.252 0 2.38-.271 3.383-.814 1.023-.564 1.796-1.326 2.318-2.287l3.728 2.161c-.94 1.588-2.245 2.851-3.916 3.791-1.671.919-3.509 1.379-5.514 1.379ZM99.945 32.803c-2.444 0-4.448-.69-6.015-2.068-1.566-1.379-2.35-3.227-2.35-5.545V10.434h4.292v14.411c0 1.149.324 2.057.972 2.726.668.668 1.702 1.002 3.101 1.002s2.423-.334 3.07-1.002c.668-.669 1.003-1.577 1.003-2.726v-14.41h4.323V25.19c0 2.318-.783 4.166-2.35 5.545-1.566 1.378-3.582 2.068-6.046 2.068ZM125.487 20.992c1.922 1.107 2.882 2.778 2.882 5.012 0 1.86-.658 3.384-1.973 4.574-1.316 1.19-2.935 1.786-4.856 1.786h-9.305v-21.93h8.647c1.88 0 3.456.585 4.73 1.755 1.295 1.149 1.943 2.62 1.943 4.417 0 1.817-.689 3.279-2.068 4.386Zm-4.605-6.516h-4.323V19.3h4.323c.668 0 1.222-.23 1.66-.689.46-.46.689-1.034.689-1.723 0-.69-.219-1.264-.657-1.723-.439-.46-1.003-.69-1.692-.69Zm.658 13.847c.731 0 1.336-.24 1.817-.72.48-.502.72-1.129.72-1.88 0-.732-.24-1.337-.72-1.818-.481-.5-1.086-.752-1.817-.752h-4.981v5.17h4.981ZM145.301 32.364l-1.316-3.947h-8.74l-1.316 3.947h-4.668l7.675-21.93h5.357L150 32.364h-4.699Zm-8.678-7.989h6.015l-3.007-8.96-3.008 8.96ZM24.565 0l24.573 14.26v27.936L24.565 57.118 0 42.154V14.177L24.565 0Z" fill="#fff"/><path d="m24.494 16.979 10.024 5.787V34.34l-10.024 5.787-10.025-5.787V22.766l10.025-5.787Z" fill="#E6E6E6"/><path d="M24.615 57.118 0 42.196l14.172-7.82 10.443 5.959 10.443-5.96L49.23 42.2 24.615 57.118Z" fill="#EBEBEB"/><path d="M49.23 14.226v27.97l-14.173-7.82v-11.2L24.615 17.23V0l24.614 14.226Z" fill="#D9D9D9"/><path d="M0 14.226v27.97l14.172-7.82v-11.2l10.443-5.946V0L0 14.226Z" fill="#fff"/><path d="m24.614 29.19 10.443 5.185-10.443 6.003-10.442-6.003 10.442-5.185Z" fill="#A9ACB0"/><path d="M24.614 29.19V17.23l10.442 5.938v11.207L24.614 29.19Z" fill="#BABABA"/><path d="M24.614 29.19V17.23L14.17 23.168v11.207l10.443-5.185Z" fill="#E6E6E6"/></svg>
